packages/core/src/svgs/sfrxeth.svg

<svg width="24" height="24" viewBox="0 0 24 24" fill="none" xmlns="http://www.w3.org/2000/svg">
<g clip-path="url(#clip0_31_18555)">
<path d="M0 0H24V24H0V0Z" fill="url(#paint0_linear_31_18555)"/>
<path d="M14.4514 8.06576C14.446 8.06102 14.4416 8.05517 14.4385 8.04862L12.2871 4.32862C12.2528 4.26862 12.2357 4.27291 12.2357 4.34148V8.15576C12.8363 8.22784 13.3888 8.52018 13.7862 8.97621C14.1837 9.43224 14.3978 10.0195 14.3871 10.6243L16.3843 11.5029C16.3889 11.5047 16.394 11.5048 16.3986 11.5032C16.4033 11.5016 16.4073 11.4985 16.41 11.4943C16.4137 11.4878 16.4157 11.4804 16.4157 11.4729C16.4157 11.4654 16.4137 11.458 16.41 11.4515L15.4628 9.81433C15.45 9.79719 15.4543 9.78005 15.4671 9.76291L17.55 7.56005C17.58 7.52576 17.58 7.49576 17.55 7.46576L16.3714 6.21434C16.3634 6.20591 16.3538 6.19919 16.3431 6.19461C16.3324 6.19002 16.3209 6.18766 16.3093 6.18766C16.2976 6.18766 16.2861 6.19002 16.2754 6.19461C16.2648 6.19919 16.2551 6.20591 16.2471 6.21434L14.5114 8.05719C14.5063 8.06208 14.5002 8.06577 14.4936 8.06799C14.4869 8.07022 14.4798 8.07092 14.4728 8.07005C14.4654 8.0705 14.4581 8.06902 14.4514 8.06576ZM11.7771 4.33291L11.7814 8.15148C11.1769 8.21967 10.6197 8.51093 10.2186 8.96828C9.81754 9.42562 9.60153 10.0161 9.61283 10.6243L7.63283 11.4986C7.62729 11.5006 7.62124 11.5006 7.61569 11.4986H7.6114L7.60283 11.49C7.59933 11.485 7.59745 11.479 7.59745 11.4729C7.59745 11.4668 7.59933 11.4608 7.60283 11.4558L8.55426 9.80576C8.55823 9.79987 8.55998 9.79276 8.55919 9.78569C8.55841 9.77863 8.55514 9.77207 8.54998 9.76719L6.43712 7.53862C6.43377 7.53531 6.43125 7.53125 6.42976 7.52679C6.42827 7.52232 6.42786 7.51756 6.42855 7.51291C6.42849 7.50895 6.42922 7.50501 6.43069 7.50134C6.43216 7.49766 6.43435 7.49431 6.43712 7.49148L7.68855 6.17576C7.69201 6.17183 7.69644 6.16888 7.7014 6.16719H7.71426L7.72283 6.17576L9.51426 8.07862L9.52283 8.08291C9.52674 8.08516 9.53118 8.08635 9.53569 8.08635C9.5402 8.08635 9.54464 8.08516 9.54855 8.08291C9.55196 8.08066 9.55487 8.07775 9.55712 8.07434L11.7214 4.31576C11.726 4.31111 11.732 4.3081 11.7385 4.30719H11.7557C11.7628 4.30922 11.7689 4.3138 11.7728 4.32005V4.33291H11.7771ZM7.59426 12.0343L9.65998 11.1258C9.75476 11.6383 10.0124 12.1066 10.3946 12.461C10.7768 12.8154 11.2632 13.037 11.7814 13.0929V14.7215C11.7814 14.73 11.7814 14.7386 11.7728 14.7472C11.7701 14.7539 11.7656 14.7598 11.76 14.7643C11.7535 14.7681 11.7461 14.7701 11.7385 14.7701C11.731 14.7701 11.7236 14.7681 11.7171 14.7643L7.58997 12.1158C7.58273 12.1118 7.57678 12.1059 7.57283 12.0986C7.56933 12.0911 7.56788 12.0828 7.56863 12.0745C7.56938 12.0662 7.57231 12.0583 7.57712 12.0515C7.58106 12.0442 7.58702 12.0383 7.59426 12.0343ZM12.2357 14.7215V13.0929C12.7504 13.0318 13.2321 12.8074 13.61 12.4526C13.9879 12.0978 14.2422 11.6313 14.3357 11.1215L16.4143 12.0343C16.4171 12.0339 16.42 12.0339 16.4228 12.0343C16.428 12.0377 16.4324 12.042 16.4357 12.0472C16.4397 12.0524 16.4425 12.0584 16.444 12.0648C16.4455 12.0712 16.4456 12.0779 16.4444 12.0843C16.4432 12.0908 16.4407 12.0969 16.437 12.1023C16.4332 12.1077 16.4284 12.1123 16.4228 12.1158L12.3043 14.76C12.2977 14.7638 12.2904 14.7658 12.2828 14.7658C12.2753 14.7658 12.2679 14.7638 12.2614 14.76C12.2547 14.7573 12.2488 14.7529 12.2443 14.7472C12.2389 14.7396 12.236 14.7307 12.2357 14.7215ZM10.0071 17.2458C10.0148 17.2368 10.0254 17.2307 10.0371 17.2286C10.0543 17.2286 10.0671 17.2286 10.0757 17.2458C10.6414 18.1029 11.1814 18.9086 11.7 19.6715C11.7128 19.6929 11.7257 19.7058 11.7428 19.7143H11.7557L11.7728 19.71L11.7771 19.7015L11.7814 19.6843V16.2558C11.7816 16.2424 11.7787 16.2292 11.7728 16.2172C11.7658 16.2046 11.7554 16.1942 11.7428 16.1872L7.6714 13.5686C7.64997 13.5515 7.63712 13.56 7.6414 13.59C7.6414 13.6115 7.64997 13.6329 7.66283 13.65L8.95712 15.5786C8.96383 15.5882 8.96707 15.5998 8.96629 15.6115C8.96551 15.6232 8.96076 15.6343 8.95283 15.6429L6.9814 17.73C6.97327 17.7388 6.96875 17.7503 6.96875 17.7622C6.96875 17.7741 6.97327 17.7856 6.9814 17.7943L8.19855 19.08C8.20337 19.0854 8.2092 19.0898 8.21569 19.0929C8.22531 19.098 8.2363 19.0999 8.24709 19.0984C8.25787 19.0969 8.26788 19.0919 8.27569 19.0843L10.0071 17.2415V17.2458ZM13.9928 17.2372H13.9971L15.7114 19.0543C15.7543 19.0972 15.7971 19.0972 15.84 19.0543L17.0185 17.8072C17.0485 17.7772 17.0485 17.7472 17.0185 17.7215L15.0728 15.6643C15.0583 15.6499 15.0495 15.6307 15.0479 15.6102C15.0463 15.5898 15.0521 15.5694 15.0643 15.5529L16.3928 13.5858C16.3951 13.5827 16.3966 13.5792 16.3974 13.5755C16.3981 13.5718 16.398 13.568 16.3971 13.5643C16.396 13.5591 16.3929 13.5545 16.3885 13.5515H16.3628L12.2957 16.1658C12.2818 16.1759 12.2701 16.1887 12.2613 16.2034C12.2525 16.2181 12.2467 16.2345 12.2443 16.2515L12.24 16.2772L12.2357 19.6843L12.24 19.7015L12.2614 19.71C12.2684 19.7119 12.2758 19.7119 12.2828 19.71C12.2899 19.7059 12.2959 19.7 12.3 19.6929L13.9371 17.2458C13.9407 17.241 13.9451 17.237 13.9503 17.234C13.9555 17.2311 13.9612 17.2292 13.9671 17.2286H13.98C13.9849 17.2305 13.9893 17.2334 13.9928 17.2372ZM12.4328 11.1343C12.4457 11.1686 12.4543 11.2115 12.4543 11.2543C12.4543 11.31 12.4371 11.3572 12.4114 11.4043C12.3799 11.4508 12.3351 11.4866 12.2828 11.5072C12.2271 11.5329 12.1543 11.5458 12.0643 11.5458C11.9828 11.5458 11.9143 11.5372 11.85 11.5243C11.7911 11.512 11.7356 11.4871 11.6871 11.4515C11.6416 11.4153 11.6062 11.3681 11.5843 11.3143C11.5628 11.2586 11.55 11.1858 11.55 11.1086H10.9371C10.9371 11.2629 10.9714 11.3958 11.0357 11.5115C11.1 11.6229 11.1857 11.7129 11.2928 11.7858C11.4 11.8586 11.5243 11.9143 11.6571 11.9486C11.9242 12.0176 12.2044 12.0176 12.4714 11.9486C12.5957 11.9186 12.6985 11.8672 12.7885 11.8029C12.8755 11.7408 12.946 11.6583 12.9938 11.5627C13.0416 11.4671 13.0653 11.3612 13.0628 11.2543C13.0649 11.1533 13.0449 11.053 13.0042 10.9604C12.9635 10.8679 12.903 10.7854 12.8271 10.7186C12.75 10.6458 12.6557 10.5815 12.54 10.5258C12.4154 10.466 12.2865 10.4158 12.1543 10.3758C12.0208 10.334 11.8916 10.2795 11.7685 10.2129C11.7287 10.1864 11.6938 10.153 11.6657 10.1143C11.6434 10.0798 11.6315 10.0397 11.6314 9.99862C11.6314 9.94291 11.6443 9.89576 11.6743 9.84862C11.7043 9.80576 11.7514 9.76719 11.8114 9.74148C11.8714 9.71576 11.9485 9.69862 12.0385 9.69862C12.1328 9.69862 12.21 9.71576 12.27 9.75005C12.33 9.78005 12.3771 9.82719 12.4071 9.87862C12.4371 9.93862 12.4543 10.0029 12.4543 10.0758H13.0628C13.0628 9.90862 13.02 9.76291 12.9343 9.64291C12.8485 9.51434 12.7285 9.42005 12.5785 9.35148C12.2793 9.23422 11.9503 9.21619 11.64 9.30005C11.5114 9.33434 11.4043 9.38576 11.3143 9.45005C11.22 9.51433 11.1471 9.59148 11.1 9.68576C11.0485 9.77576 11.0228 9.87862 11.0228 9.99433C11.0228 10.1143 11.0443 10.2172 11.0957 10.3029C11.1428 10.3886 11.2114 10.47 11.2971 10.5343C11.3828 10.6029 11.4814 10.6629 11.5928 10.71C11.7043 10.7615 11.82 10.8043 11.9443 10.8429C12.0514 10.8772 12.1371 10.9072 12.2014 10.9415C12.27 10.9715 12.3214 11.0015 12.3557 11.0315C12.3943 11.0658 12.42 11.0958 12.4328 11.1343Z" fill="white"/>
</g>
<defs>
<linearGradient id="paint0_linear_31_18555" x1="4.46571" y1="4.16143" x2="29.2071" y2="32.58" gradientUnits="userSpaceOnUse">
<stop stop-color="#1A1E21"/>
<stop offset="1" stop-color="#06060A"/>
</linearGradient>
<clipPath id="clip0_31_18555">
<rect width="24" height="24" fill="white"/>
</clipPath>
</defs>
</svg>

<svg xmlns="http://www.w3.org/2000/svg" width="24" height="24" fill="none" viewBox="0 0 24 24"><g clip-path="url(#a)"><path fill="url(#b)" d="M0 0h24v24H0z"/><path fill="#fff" d="M14.451 8.066a.1.1 0 0 1-.013-.017l-2.15-3.72q-.052-.09-.052.012v3.815a2.443 2.443 0 0 1 2.151 2.468l1.997.879a.02.02 0 0 0 .015 0 .02.02 0 0 0 .011-.009.04.04 0 0 0 0-.043l-.947-1.637q-.018-.025.004-.051L17.55 7.56q.045-.05 0-.094l-1.179-1.252a.085.085 0 0 0-.124 0l-1.736 1.843a.05.05 0 0 1-.038.013.04.04 0 0 1-.022-.004m-2.674-3.733.004 3.818a2.443 2.443 0 0 0-2.168 2.473l-1.98.875a.03.03 0 0 1-.017 0H7.61l-.008-.009a.03.03 0 0 1 0-.034l.951-1.65a.03.03 0 0 0-.004-.039L6.437 7.54a.03.03 0 0 1-.008-.026.03.03 0 0 1 .008-.022L7.69 6.176l.012-.009h.013l.009.009 1.791 1.903.009.004a.03.03 0 0 0 .026 0l.008-.009 2.164-3.758a.03.03 0 0 1 .018-.009h.017a.03.03 0 0 1 .017.013v.013zm-4.183 7.701 2.066-.908a2.42 2.42 0 0 0 2.121 1.967v1.629q.002.012-.008.025a.04.04 0 0 1-.013.017.04.04 0 0 1-.043 0L7.59 12.116a.04.04 0 0 1-.017-.017.05.05 0 0 1 .004-.047.04.04 0 0 1 .017-.018m4.642 2.688v-1.63a2.43 2.43 0 0 0 2.1-1.97l2.078.912h.009q.008.006.013.013a.05.05 0 0 1 .008.037.05.05 0 0 1-.021.032l-4.119 2.644a.04.04 0 0 1-.043 0 .04.04 0 0 1-.017-.013.05.05 0 0 1-.008-.025m-2.229 2.524a.05.05 0 0 1 .03-.017c.017 0 .03 0 .039.017q.846 1.284 1.624 2.426a.1.1 0 0 0 .043.042h.013l.017-.004.004-.009.004-.017v-3.428a.1.1 0 0 0-.008-.039.1.1 0 0 0-.03-.03L7.67 13.57c-.021-.018-.034-.009-.03.021q.001.033.022.06l1.294 1.929a.05.05 0 0 1-.004.064L6.98 17.73a.05.05 0 0 0 0 .064L8.2 19.08q.006.008.017.013a.05.05 0 0 0 .06-.009l1.731-1.843zm3.986-.009h.004l1.714 1.817q.065.064.129 0l1.178-1.247q.045-.046 0-.085l-1.945-2.058a.086.086 0 0 1-.009-.111l1.329-1.967.004-.01v-.012a.02.02 0 0 0-.008-.012h-.026l-4.067 2.614a.13.13 0 0 0-.052.085l-.004.026-.004 3.407.004.017.021.009a.04.04 0 0 0 .022 0 .1.1 0 0 0 .017-.017l1.637-2.447a.04.04 0 0 1 .03-.017h.013q.008.003.013.008m-1.56-6.103a.305.305 0 0 1-.021.27.3.3 0 0 1-.13.103.5.5 0 0 1-.218.039q-.12-.001-.214-.022a.4.4 0 0 1-.163-.072.34.34 0 0 1-.103-.138.6.6 0 0 1-.034-.205h-.613q0 .23.099.402a.8.8 0 0 0 .257.275q.162.11.364.163c.267.069.547.069.814 0a.9.9 0 0 0 .318-.146.66.66 0 0 0 .274-.549.7.7 0 0 0-.236-.535 1.1 1.1 0 0 0-.287-.193 3 3 0 0 0-.386-.15 2 2 0 0 1-.386-.163.4.4 0 0 1-.102-.099.2.2 0 0 1-.035-.115c0-.056.013-.103.043-.15a.3.3 0 0 1 .137-.108.6.6 0 0 1 .228-.042q.141 0 .231.051c.06.03.107.077.137.129q.046.089.047.197h.609a.73.73 0 0 0-.129-.433.83.83 0 0 0-.355-.292 1.5 1.5 0 0 0-.939-.051 1 1 0 0 0-.326.15.6.6 0 0 0-.214.236.6.6 0 0 0-.077.308c0 .12.021.223.073.309a.7.7 0 0 0 .201.231q.129.104.296.176.166.075.351.133c.107.034.193.064.257.098q.103.045.155.09a.24.24 0 0 1 .077.103"/></g><defs><linearGradient id="b" x1="4.466" x2="29.207" y1="4.161" y2="32.58" gradientUnits="userSpaceOnUse"><stop stop-color="#1A1E21"/><stop offset="1" stop-color="#06060A"/></linearGradient><clipPath id="a"><path fill="#fff" d="M0 0h24v24H0z"/></clipPath></defs></svg>
